resources/haticons/SVG/dropbox1.svg

<svg height="24" width="24" xmlns="http://www.w3.org/2000/svg"><path d="m12 4.5 5.25-4.5 6.75 4.5-5.25 4.5zm12 9-6.75 3.75-5.25-4.5 6.75-3.75zm-17.25 3.75-6.75-3.75 5.25-4.5 6.75 3.75zm-6.75-12.75 6.75-4.5 5.25 4.5-6.75 4.5zm12 10.275 5.025 4.275 3.225-1.8v2.25l-8.25 3.75-8.25-3.75v-2.25l3.225 1.725z"/></svg>

<svg xmlns="http://www.w3.org/2000/svg" width="24" height="24"><path d="M12 4.5L17.25 0 24 4.5 18.75 9 12 4.5zm12 9l-6.75 3.75-5.25-4.5L18.75 9 24 13.5zM6.75 17.25L0 13.5 5.25 9 12 12.75l-5.25 4.5zM0 4.5L6.75 0 12 4.5 5.25 9 0 4.5zm12 10.275l5.025 4.275 3.225-1.8v2.25L12 23.25 3.75 19.5v-2.25l3.225 1.725 5.025-4.2z"/></svg>
